src/topics/icons/gleam.svg

<svg height="256" preserveAspectRatio="xMidYMid" viewBox="0 0 256 256" width="256" xmlns="http://www.w3.org/2000/svg"><path d="m256 74.981v106.038l-3.417.333-123.367-51.822-1.216-1.53z" fill="#f36a22"/><path d="m256 181.019-74.981 74.981-1.145-.881-52.309-123.609.435-3.51z" fill="#f3852f"/><path d="m128 128-2.828 1.943-50.636 123.898.445 2.159h106.038z" fill="#f2c32e"/><path d="m0 181.019 3.174-2.468 121.998-51.002 2.828.451-53.019 128z" fill="#cbdc38"/><path d="m0 74.981 3.174-.215 123.071 50.473 1.755 2.761-128 53.019z" fill="#b5d66d"/><path d="m74.981 0-74.981 74.981 128 53.019.225-3.256-47.729-121.718z" fill="#69c5e5"/><path d="m74.981 0h106.038l-53.019 128z" fill="#6d9fd5"/></svg>

<?xml version="1.0" encoding="UTF-8" standalone="no"?>
<svg width="256px" height="256px" viewBox="0 0 256 256" version="1.1" xmlns="http://www.w3.org/2000/svg" xmlns:xlink="http://www.w3.org/1999/xlink" preserveAspectRatio="xMidYMid">
	<g>
		<path d="M256,74.981 L256,181.019 L252.583,181.352 L129.216,129.53 L128,128 L256,74.981" fill="#F36A22"></path>
		<path d="M256,181.019 L181.019,256 L179.874,255.119 L127.565,131.51 L128,128 L256,181.019" fill="#F3852F"></path>
		<path d="M128,128 L125.172,129.943 L74.536,253.841 L74.981,256 L181.019,256 L128,128" fill="#F2C32E"></path>
		<path d="M0,181.019 L3.174,178.551 L125.172,127.549 L128,128 L74.981,256 L0,181.019" fill="#CBDC38"></path>
		<path d="M0,74.981 L3.174,74.766 L126.245,125.239 L128,128 L0,181.019 L0,74.981" fill="#B5D66D"></path>
		<path d="M74.981,0 L0,74.981 L128,128 L128.225,124.744 L80.496,3.026 L74.981,0" fill="#69C5E5"></path>
		<path d="M74.981,0 L181.019,0 L128,128 L74.981,0" fill="#6D9FD5"></path>
	</g>
</svg>
